icons/teams.svg

<svg fill="none" height="12" viewBox="0 0 12 12" width="12" xmlns="http://www.w3.org/2000/svg" xmlns:xlink="http://www.w3.org/1999/xlink"><linearGradient id="a"><stop offset="0" stop-color="#5a62c3"/><stop offset=".5" stop-color="#4d55bd"/><stop offset="1" stop-color="#3940ab"/></linearGradient><linearGradient id="b" gradientUnits="userSpaceOnUse" x1="2.08465" x2="9.91537" xlink:href="#a" y1="-.781239" y2="12.7813"/><linearGradient id="c" gradientUnits="userSpaceOnUse" x1="3.46087" x2="5.04017" xlink:href="#a" y1="4.65302" y2="6.86769"/><rect fill="url(#b)" height="12" rx="2.5" width="12"/><path d="m7.58013 4.97558h2.06642c.19523 0 .35345.15826.35345.35349v1.88223c0 .71751-.58161 1.29916-1.29912 1.29916h-.00615c-.7175.0001-1.29924-.58147-1.29934-1.29898 0-.00006 0-.00012 0-.00018v-2.05098c0-.10203.08271-.18474.18474-.18474z" fill="#e2e2e2"/><path d="m8.97674 4.60348c.46237 0 .83721-.37483.83721-.83721s-.37484-.83721-.83721-.83721c-.46238 0-.83721.37483-.83721.83721s.37483.83721.83721.83721z" fill="#e2e2e2"/><path d="m6.37215 4.60349c.66788 0 1.2093-.54142 1.2093-1.2093s-.54142-1.20931-1.2093-1.20931-1.20931.54143-1.20931 1.20931.54143 1.2093 1.20931 1.2093z" fill="#fff"/><path d="m7.98451 4.97558h-3.41098c-.1929.00477-.34549.16486-.34102.35777v2.14679c-.02693 1.15762.88892 2.11827 2.04652 2.1466 1.15759-.02833 2.07344-.98898 2.04651-2.1466v-2.14679c.00447-.19291-.14812-.353-.34103-.35777z" fill="#fff"/><g fill="#000"><path d="m6.46508 4.97558v3.00837c-.00093.13796-.08452.26189-.21209.31442-.04062.01718-.08427.02603-.12838.02605h-1.72837c-.02418-.0614-.04651-.1228-.06512-.18605-.06512-.21348-.09835-.43541-.0986-.6586v-2.14698c-.00447-.1926.14787-.35244.34046-.35721z" opacity=".1"/><path d="m6.27903 4.97558v3.19442c0 .0441-.00886.08775-.02604.12837-.05253.12757-.17647.21117-.31442.21209h-1.45489c-.03162-.06139-.06139-.12279-.08744-.18604-.02605-.06326-.04651-.12279-.06512-.18605-.06512-.21348-.09835-.43541-.0986-.6586v-2.14698c-.00447-.1926.14787-.35244.34046-.35721z" opacity=".2"/><path d="m6.27903 4.97558v2.82233c-.00142.18744-.15302.33904-.34046.34046h-1.60745c-.06512-.21348-.09835-.43541-.0986-.6586v-2.14698c-.00447-.1926.14787-.35244.34046-.35721z" opacity=".2"/><path d="m6.46513 4.01372v.58604c-.03163.00186-.0614.00373-.09303.00373-.03162 0-.06139-.00186-.09302-.00373-.0628-.00416-.12508-.01413-.18605-.02976-.37674-.08922-.68799-.35344-.8372-.7107-.02568-.05999-.04561-.12229-.05954-.18604h.92837c.18774.00071.33975.15272.34047.34046z" opacity=".1"/><path d="m6.27911 4.19977v.4c-.06279-.00417-.12508-.01413-.18604-.02977-.37675-.08922-.688-.35343-.83721-.71069h.68279c.18773.00071.33975.15272.34046.34046z" opacity=".2"/><path d="m6.27911 4.19977v.4c-.06279-.00417-.12508-.01413-.18604-.02977-.37675-.08922-.688-.35343-.83721-.71069h.68279c.18773.00071.33975.15272.34046.34046z" opacity=".2"/><path d="m6.09307 4.19976v.37024c-.37675-.08922-.688-.35344-.83721-.7107h.49674c.18774.00071.33975.15273.34047.34046z" opacity=".2"/></g><path d="m2.34102 3.8593h3.41098c.18834 0 .34102.15268.34102.34102v3.41098c0 .18834-.15268.34102-.34102.34102h-3.41098c-.18834 0-.34102-.15269-.34102-.34102v-3.41098c0-.18834.15268-.34102.34102-.34102z" fill="#fff"/><path d="m4.94402 5.15753h-.68186v1.85675h-.43441v-1.85675h-.6787v-.36018h1.79497z" fill="url(#c)"/></svg>

<svg width="12" height="12" viewBox="0 0 12 12" fill="none" xmlns="http://www.w3.org/2000/svg">
<rect width="12" height="12" rx="2" fill="url(#paint0_linear_210_201)"/>
<g clip-path="url(#clip0_210_201)">
<path d="M7.58001 4.97559H9.64643C9.84166 4.97559 9.99992 5.13385 9.99992 5.32907V7.21131C9.99992 7.92882 9.41826 8.51047 8.70075 8.51047H8.69461C7.9771 8.51057 7.39537 7.929 7.39526 7.21149C7.39526 7.21143 7.39526 7.21137 7.39526 7.2113V5.16033C7.39527 5.0583 7.47798 4.97559 7.58001 4.97559Z" fill="#E2E2E2"/>
<path d="M8.97686 4.60348C9.43924 4.60348 9.81407 4.22865 9.81407 3.76627C9.81407 3.30389 9.43924 2.92906 8.97686 2.92906C8.51448 2.92906 8.13965 3.30389 8.13965 3.76627C8.13965 4.22865 8.51448 4.60348 8.97686 4.60348Z" fill="#E2E2E2"/>
<path d="M6.37215 4.60348C7.04003 4.60348 7.58145 4.06206 7.58145 3.39418C7.58145 2.7263 7.04003 2.18488 6.37215 2.18488C5.70427 2.18488 5.16284 2.7263 5.16284 3.39418C5.16284 4.06206 5.70427 4.60348 6.37215 4.60348Z" fill="white"/>
<path d="M7.98451 4.97559H4.57353C4.38063 4.98036 4.22804 5.14045 4.23251 5.33336V7.48015C4.20558 8.63777 5.12143 9.59842 6.27903 9.62675C7.43662 9.59842 8.35247 8.63777 8.32554 7.48015V5.33336C8.33001 5.14045 8.17742 4.98036 7.98451 4.97559Z" fill="white"/>
<path opacity="0.1" d="M6.46508 4.97559V7.98396C6.46415 8.12191 6.38056 8.24585 6.25299 8.29838C6.21237 8.31556 6.16872 8.32441 6.12461 8.32442H4.39624C4.37206 8.26303 4.34973 8.20163 4.33112 8.13838C4.266 7.9249 4.23277 7.70297 4.23252 7.47977V5.3328C4.22805 5.1402 4.38039 4.98036 4.57298 4.97559H6.46508Z" fill="black"/>
<path opacity="0.2" d="M6.27903 4.97559V8.17C6.27903 8.21411 6.27017 8.25776 6.25299 8.29838C6.20046 8.42594 6.07652 8.50955 5.93857 8.51047H4.48368C4.45206 8.44907 4.42229 8.38768 4.39624 8.32442C4.37019 8.26117 4.34973 8.20163 4.33112 8.13838C4.266 7.9249 4.23277 7.70297 4.23252 7.47977V5.3328C4.22805 5.1402 4.38039 4.98036 4.57298 4.97559H6.27903Z" fill="black"/>
<path opacity="0.2" d="M6.27903 4.97559V7.79791C6.27761 7.98536 6.12601 8.13696 5.93857 8.13838H4.33112C4.266 7.9249 4.23277 7.70297 4.23252 7.47977V5.3328C4.22805 5.1402 4.38039 4.98036 4.57298 4.97559H6.27903Z" fill="black"/>
<path opacity="0.1" d="M6.46513 4.01373V4.59977C6.4335 4.60163 6.40373 4.60349 6.3721 4.60349C6.34048 4.60349 6.31071 4.60163 6.27908 4.59977C6.21628 4.5956 6.154 4.58564 6.09303 4.57001C5.71629 4.48079 5.40504 4.21657 5.25583 3.85931C5.23015 3.79931 5.21022 3.73702 5.19629 3.67326H6.12466C6.3124 3.67397 6.46441 3.82599 6.46513 4.01373Z" fill="black"/>
<path opacity="0.2" d="M6.27911 4.19976V4.59976C6.21632 4.59559 6.15403 4.58563 6.09307 4.57C5.71632 4.48078 5.40507 4.21656 5.25586 3.8593H5.93865C6.12638 3.86001 6.2784 4.01202 6.27911 4.19976Z" fill="black"/>
<path opacity="0.2" d="M6.27911 4.19976V4.59976C6.21632 4.59559 6.15403 4.58563 6.09307 4.57C5.71632 4.48078 5.40507 4.21656 5.25586 3.8593H5.93865C6.12638 3.86001 6.2784 4.01202 6.27911 4.19976Z" fill="black"/>
<path opacity="0.2" d="M6.09307 4.19976V4.57C5.71632 4.48078 5.40507 4.21656 5.25586 3.8593H5.7526C5.94034 3.86001 6.09235 4.01203 6.09307 4.19976Z" fill="black"/>
<path d="M2.34102 3.8593H5.752C5.94034 3.8593 6.09302 4.01198 6.09302 4.20032V7.6113C6.09302 7.79964 5.94034 7.95232 5.752 7.95232H2.34102C2.15268 7.95232 2 7.79964 2 7.6113V4.20032C2 4.01198 2.15268 3.8593 2.34102 3.8593Z" fill="white"/>
<path d="M4.9439 5.15753H4.26204V7.01428H3.82762V5.15753H3.14893V4.79735H4.9439V5.15753Z" fill="url(#paint1_linear_210_201)"/>
</g>
<defs>
<linearGradient id="paint0_linear_210_201" x1="2.08465" y1="-0.781239" x2="9.91537" y2="12.7813" gradientUnits="userSpaceOnUse">
<stop stop-color="#5A62C3"/>
<stop offset="0.5" stop-color="#4D55BD"/>
<stop offset="1" stop-color="#3940AB"/>
</linearGradient>
<linearGradient id="paint1_linear_210_201" x1="3.46075" y1="4.65302" x2="5.04005" y2="6.86769" gradientUnits="userSpaceOnUse">
<stop stop-color="#5A62C3"/>
<stop offset="0.5" stop-color="#4D55BD"/>
<stop offset="1" stop-color="#3940AB"/>
</linearGradient>
<clipPath id="clip0_210_201">
<rect width="8" height="7.44186" fill="white" transform="translate(2 2.18488)"/>
</clipPath>
</defs>
</svg>
